blockchains/ethereum/assets/0x3883f5e181fccaF8410FA61e12b59BAd963fb645/logo.svg

<svg fill="none" height="250" viewBox="0 0 250 250" width="250" xmlns="http://www.w3.org/2000/svg" xmlns:xlink="http://www.w3.org/1999/xlink"><linearGradient id="a"><stop offset="0" stop-color="#2ab8e6"/><stop offset=".53" stop-color="#29cad2"/><stop offset="1" stop-color="#2ee4be"/></linearGradient><linearGradient id="b" gradientUnits="userSpaceOnUse" x1="64.821" x2="185.179" xlink:href="#a" y1="64.8173" y2="185.175"/><linearGradient id="c" gradientUnits="userSpaceOnUse" x1="8804.91" x2="14723.6" xlink:href="#a" y1="14152.1" y2="17822.1"/><clipPath id="d"><path d="m0 0h250v250h-250z"/></clipPath><g clip-path="url(#d)"><path d="m0 125c0-69.0356 55.9644-125 125-125 69.036 0 125 55.9644 125 125 0 69.036-55.964 125-125 125-69.0356 0-125-55.964-125-125z" fill="#202637"/><path d="m83.7529 53.75h82.5001v142.5h-82.5001z" fill="#1b1f2b"/><path clip-rule="evenodd" d="m75.8943 53.7492 7.8585-7.8586h82.5002l7.858 7.8586v142.4998l-7.858 7.859h-82.5002l-7.8585-7.859zm15.7171 7.8585v126.7833h66.7826v-126.7833z" fill="url(#b)" fill-rule="evenodd"/><path d="m150 147.497h-17.084v17.898h-15.416v-17.898h-17.084v-15.416h49.584zm0-44.169h-17.084v-17.8983h-15.416v17.8983h-17.084v15.416h49.584z" fill="url(#c)"/></g></svg>

<svg width="250" height="250" viewBox="0 0 250 250" fill="none" xmlns="http://www.w3.org/2000/svg">
<g clip-path="url(#clip0_46_11132)">
<path d="M0 125C0 55.9644 55.9644 0 125 0C194.036 0 250 55.9644 250 125C250 194.036 194.036 250 125 250C55.9644 250 0 194.036 0 125Z" fill="#202637"/>
<path d="M83.7529 53.75H166.253V196.25H83.7529V53.75Z" fill="#1B1F2B"/>
<path fill-rule="evenodd" clip-rule="evenodd" d="M75.8943 53.7492L83.7528 45.8906H166.253L174.111 53.7492V196.249L166.253 204.108H83.7528L75.8943 196.249V53.7492ZM91.6114 61.6077V188.391H158.394V61.6077H91.6114Z" fill="url(#paint0_linear_46_11132)"/>
<path d="M150 147.497H132.916V165.395H117.5V147.497H100.416V132.081H150V147.497ZM150 103.328H132.916V85.4297H117.5V103.328H100.416V118.744H150V103.328Z" fill="url(#paint1_linear_46_11132)"/>
</g>
<defs>
<linearGradient id="paint0_linear_46_11132" x1="64.821" y1="64.8173" x2="185.179" y2="185.175" gradientUnits="userSpaceOnUse">
<stop stop-color="#2AB8E6"/>
<stop offset="0.53" stop-color="#29CAD2"/>
<stop offset="1" stop-color="#2EE4BE"/>
</linearGradient>
<linearGradient id="paint1_linear_46_11132" x1="8804.91" y1="14152.1" x2="14723.6" y2="17822.1" gradientUnits="userSpaceOnUse">
<stop stop-color="#2AB8E6"/>
<stop offset="0.53" stop-color="#29CAD2"/>
<stop offset="1" stop-color="#2EE4BE"/>
</linearGradient>
<clipPath id="clip0_46_11132">
<rect width="250" height="250" fill="white"/>
</clipPath>
</defs>
</svg>
